X:6
T:The Sally Gardens
C:Traditional
N:Play 2 times plus once through without repeats
N:The Derradda Set, Figure 3, Tune 2 of 2
Z:Gordon Turnbull, Edinburgh
Z:gturnbull@theflow.org.uk
Z:http://www.theflow.org.uk
R:reel
L:1/8
M:C
K:G
G2 DG B2 GB | dBeB d ~B3 | d2 Bd eBdB  | AcBA GEDE |
G2 DG B2 GB | dBeB d ~B3 | d2 Bd efge | dBAB G3 B :||
dggf g2 dg | g2 bg agfg | eaag a2 ea | agbg ageg |
dggf g2 dg | g2 bg agec | d2 Bd efge | dBAB G3 B :||
